img/n/n8n.io.svg

<svg viewBox="0 0 53 28" fill="none" xmlns="http://www.w3.org/2000/svg"><g><path fill-rule="evenodd" clip-rule="evenodd" d="M46.8966 11.0345C44.3257 11.0345 42.1657 9.27617 41.5531 6.89655H35.2295C33.881 6.89655 32.7302 7.87148 32.5084 9.20165L32.2817 10.5622C32.0664 11.854 31.4129 12.9782 30.4888 13.7931C31.4129 14.608 32.0664 15.7322 32.2817 17.024L32.5084 18.3845C32.7302 19.7147 33.881 20.6897 35.2295 20.6897H36.0359C36.6484 18.31 38.8084 16.5517 41.3793 16.5517C44.4264 16.5517 46.8966 19.0219 46.8966 22.069C46.8966 25.116 44.4264 27.5862 41.3793 27.5862C38.8084 27.5862 36.6483 25.8279 36.0359 23.4483H35.2295C32.5324 23.4483 30.2307 21.4984 29.7872 18.8381L29.5605 17.4776C29.3388 16.1473 28.1879 15.1724 26.8395 15.1724H24.6538C24.0414 17.5521 21.8812 19.3103 19.3103 19.3103C16.7395 19.3103 14.5794 17.5521 13.9669 15.1724H10.8607C10.2482 17.5521 8.08805 19.3103 5.51724 19.3103C2.47016 19.3103 0 16.8402 0 13.7931C0 10.746 2.47016 8.27586 5.51724 8.27586C8.08805 8.27586 10.2482 10.0342 10.8607 12.4138H13.9669C14.5794 10.0342 16.7395 8.27586 19.3103 8.27586C21.8812 8.27586 24.0414 10.0342 24.6538 12.4138H26.8395C28.1879 12.4138 29.3388 11.4389 29.5605 10.1087L29.7872 8.74814C30.2307 6.08779 32.5324 4.13793 35.2295 4.13793H41.5531C42.1655 1.75831 44.3257 0 46.8966 0C49.9436 0 52.4138 2.47016 52.4138 5.51724C52.4138 8.56433 49.9436 11.0345 46.8966 11.0345ZM46.8966 8.27586C48.4202 8.27586 49.6552 7.04079 49.6552 5.51724C49.6552 3.99369 48.4202 2.75862 46.8966 2.75862C45.3729 2.75862 44.1379 3.99369 44.1379 5.51724C44.1379 7.04079 45.3729 8.27586 46.8966 8.27586ZM5.51724 16.5517C7.04079 16.5517 8.27586 15.3167 8.27586 13.7931C8.27586 12.2696 7.04079 11.0345 5.51724 11.0345C3.99369 11.0345 2.75862 12.2696 2.75862 13.7931C2.75862 15.3167 3.99369 16.5517 5.51724 16.5517ZM22.069 13.7931C22.069 15.3167 20.834 16.5517 19.3103 16.5517C17.7867 16.5517 16.5517 15.3167 16.5517 13.7931C16.5517 12.2696 17.7867 11.0345 19.3103 11.0345C20.834 11.0345 22.069 12.2696 22.069 13.7931ZM44.1379 22.069C44.1379 23.5926 42.9029 24.8276 41.3793 24.8276C39.8557 24.8276 38.6207 23.5926 38.6207 22.069C38.6207 20.5453 39.8557 19.3103 41.3793 19.3103C42.9029 19.3103 44.1379 20.5453 44.1379 22.069Z" fill="#EA4B71"></path></g></svg>

<svg xmlns="http://www.w3.org/2000/svg" viewBox="0 0 53 28"><path fill="#EA4B71" fill-rule="evenodd" d="M46.9 11.03a5.52 5.52 0 0 1-5.35-4.13h-6.32c-1.35 0-2.5.97-2.72 2.3l-.23 1.36a5.5 5.5 0 0 1-1.8 3.23 5.5 5.5 0 0 1 1.8 3.23l.23 1.36a2.76 2.76 0 0 0 2.72 2.31h.8a5.52 5.52 0 1 1 0 2.76h-.8c-2.7 0-5-1.95-5.44-4.61l-.23-1.36a2.76 2.76 0 0 0-2.72-2.3h-2.19a5.52 5.52 0 0 1-10.68 0h-3.1a5.52 5.52 0 1 1 0-2.77h3.1a5.52 5.52 0 0 1 10.68 0h2.19c1.35 0 2.5-.97 2.72-2.3l.23-1.36a5.52 5.52 0 0 1 5.44-4.61h6.32a5.52 5.52 0 1 1 5.35 6.9Zm0-2.75a2.76 2.76 0 1 0 0-5.52 2.76 2.76 0 0 0 0 5.52ZM5.52 16.55a2.76 2.76 0 1 0 0-5.52 2.76 2.76 0 0 0 0 5.52Zm16.55-2.76a2.76 2.76 0 1 1-5.52 0 2.76 2.76 0 0 1 5.52 0Zm22.07 8.28a2.76 2.76 0 1 1-5.52 0 2.76 2.76 0 0 1 5.52 0Z"/></svg>
